src/pos-icons/cart-remove.svg

<svg height="24" viewBox="0 0 24 24" width="24" xmlns="http://www.w3.org/2000/svg"><path d="m14.12 8.53-2.12-2.12-2.12 2.13-1.42-1.42 2.13-2.12-2.12-2.12 1.41-1.41 2.12 2.12 2.12-2.13 1.42 1.42-2.13 2.12 2.12 2.12zm-7.12 9.47a2 2 0 0 1 2 2 2 2 0 0 1 -2 2 2 2 0 0 1 -2-2 2 2 0 0 1 2-2m10 0a2 2 0 0 1 2 2 2 2 0 0 1 -2 2 2 2 0 0 1 -2-2 2 2 0 0 1 2-2m-9.83-3.25a.25.25 0 0 0 .25.25h11.58v2h-12a2 2 0 0 1 -2-2c0-.35.09-.68.25-.96l1.35-2.45-3.6-7.59h-2v-2h3.27l.94 2 .95 2 2.24 4.73.13.27h7.02l2.76-5 1.1-2h.01l1.74.96-3.86 7.01c-.34.62-1 1.03-1.75 1.03h-7.45l-.9 1.63z"/></svg>

<?xml version="1.0" encoding="UTF-8"?><!DOCTYPE svg PUBLIC "-//W3C//DTD SVG 1.1//EN" "http://www.w3.org/Graphics/SVG/1.1/DTD/svg11.dtd"><svg xmlns="http://www.w3.org/2000/svg" xmlns:xlink="http://www.w3.org/1999/xlink" version="1.1" id="mdi-cart-remove" width="24" height="24" viewBox="0 0 24 24"><path d="M14.12,8.53L12,6.41L9.88,8.54L8.46,7.12L10.59,5L8.47,2.88L9.88,1.47L12,3.59L14.12,1.46L15.54,2.88L13.41,5L15.53,7.12L14.12,8.53M7,18A2,2 0 0,1 9,20A2,2 0 0,1 7,22A2,2 0 0,1 5,20A2,2 0 0,1 7,18M17,18A2,2 0 0,1 19,20A2,2 0 0,1 17,22A2,2 0 0,1 15,20A2,2 0 0,1 17,18M7.17,14.75A0.25,0.25 0 0,0 7.42,15H19V17H7A2,2 0 0,1 5,15C5,14.65 5.09,14.32 5.25,14.04L6.6,11.59L3,4H1V2H4.27L5.21,4L6.16,6L8.4,10.73L8.53,11H15.55L18.31,6L19.41,4H19.42L21.16,4.96L17.3,11.97C16.96,12.59 16.3,13 15.55,13H8.1L7.2,14.63L7.17,14.75Z" /></svg>
